symbols/web/hd/materialsymbolsrounded/hd_wght600fill1_24px.svg

<svg xmlns="http://www.w3.org/2000/svg" height="24" width="24"><path d="M6.825 15q.325 0 .538-.213.212-.212.212-.537V13h2v1.25q0 .325.213.537.212.213.537.213.325 0 .538-.213.212-.212.212-.537v-4.5q0-.325-.212-.538Q10.65 9 10.325 9q-.325 0-.537.212-.213.213-.213.538v1.75h-2V9.75q0-.325-.212-.538Q7.15 9 6.825 9q-.325 0-.538.212-.212.213-.212.538v4.5q0 .325.212.537.213.213.538.213Zm6.75 0h3.35q.425 0 .713-.288.287-.287.287-.712v-4q0-.425-.287-.713Q17.35 9 16.925 9h-3.35q-.275 0-.462.188-.188.187-.188.487v4.65q0 .3.188.487.187.188.462.188Zm.85-1.5v-3h2v3Zm-10.25 6.975q-1.125 0-1.887-.763-.763-.762-.763-1.887V6.175q0-1.125.763-1.888.762-.762 1.887-.762h15.65q1.125 0 1.888.762.762.763.762 1.888v11.65q0 1.125-.762 1.887-.763.763-1.888.763Z"/></svg>

<svg xmlns="http://www.w3.org/2000/svg" height="24" width="24"><path d="M6.825 15Q7.15 15 7.363 14.787Q7.575 14.575 7.575 14.25V13H9.575V14.25Q9.575 14.575 9.788 14.787Q10 15 10.325 15Q10.65 15 10.863 14.787Q11.075 14.575 11.075 14.25V9.75Q11.075 9.425 10.863 9.212Q10.65 9 10.325 9Q10 9 9.788 9.212Q9.575 9.425 9.575 9.75V11.5H7.575V9.75Q7.575 9.425 7.363 9.212Q7.15 9 6.825 9Q6.5 9 6.287 9.212Q6.075 9.425 6.075 9.75V14.25Q6.075 14.575 6.287 14.787Q6.5 15 6.825 15ZM13.575 15H16.925Q17.35 15 17.638 14.712Q17.925 14.425 17.925 14V10Q17.925 9.575 17.638 9.287Q17.35 9 16.925 9H13.575Q13.3 9 13.113 9.188Q12.925 9.375 12.925 9.675V14.325Q12.925 14.625 13.113 14.812Q13.3 15 13.575 15ZM14.425 13.5V10.5H16.425Q16.425 10.5 16.425 10.5Q16.425 10.5 16.425 10.5V13.5Q16.425 13.5 16.425 13.5Q16.425 13.5 16.425 13.5ZM4.175 20.475Q3.05 20.475 2.288 19.712Q1.525 18.95 1.525 17.825V6.175Q1.525 5.05 2.288 4.287Q3.05 3.525 4.175 3.525H19.825Q20.95 3.525 21.713 4.287Q22.475 5.05 22.475 6.175V17.825Q22.475 18.95 21.713 19.712Q20.95 20.475 19.825 20.475Z"/></svg>
